X: 267
T:Road to the Isles
M:2/4
L:1/16
R:march
K:D
A>d|"D"f4 "D7"a>fe<f|"G"d>ed<c B2d>c|B<GB>c "E7"d>ef<a|"A"e4"A7"e2A>d|
"D"f4 "D7"a>fe<f|"G"d>ed<c B2g2|f<a"D"f>d "A"A>ce<c|"D"d4 d2:|
f>g|"D"a>AA<A "D7"f>AA<A|"G"d>ed<c B2d>c|B<GB>c "E7"d>ef<a|"A"e6"A7"f>g|
"D"a>AA<A "D7"f>AA<A|"G"d>ed<c B2g2|f<a"D"f>d "A"A>ce<c|"D"d4 d2:|
